X:3611
T:Leirertanz, genannt "Die bladn Buam", orig. C-Dur
O:england
R:Lndler
C:trad.
S:Hg. E.Kremser, Bd. I, Wien 1912
A:Wien
P:2
M:3/4
L:1/8
K:G
(Bcd2)(Bc|d2)(Bcde)|d2(cBcA)|(AcB)zB2|\
(Bcd2)(Bc|d2)(Bcde)|d2(cBcA)|B6:|
(ABc2)(AB)|(c2A)zA2|(Bcd2)(Bc)|(d2B)zB2|\
(ABc2)(AB)|(c2A)zA2|(Bcd2)(cA)|B6:|
